Yaru++/apps/scalable/nuvolaplayer.svg

<svg height="256" width="256" xmlns="http://www.w3.org/2000/svg" xmlns:xlink="http://www.w3.org/1999/xlink">
  <linearGradient id="linearGradient4358" gradientTransform="matrix(0 -1 1 0 -10.0054 585.9946)" gradientUnits="userSpaceOnUse" x1="88" x2="488" y1="88" y2="488">
    <stop offset="0" stop-opacity=".588235"/>
    <stop offset=".88" stop-opacity="0"/>
    <stop offset="1"/>
  </linearGradient>
  <filter id="filter4380" color-interpolation-filters="sRGB" height="1.088" width="1.106" x="-.05" y="-.04">
    <feGaussianBlur stdDeviation="8.48"/>
  </filter>
  <filter id="filter4346" color-interpolation-filters="sRGB" height="1.022" width="1.026" x="-.01" y="-.01">
    <feGaussianBlur stdDeviation="2.12"/>
  </filter>
  <path d="m189.84323 74c-70.59344 0-78.18921 7.250835-77.84323 77.98706v146.01294 146.01294c-.34598 70.73623 7.24979 77.98706 77.84323 77.98706h196.31354c70.59344 0 76.00668-7.27384 77.84323-77.98706v-146.01294-146.01294c0-70.737067-7.24979-77.98706-77.84323-77.98706z" filter="url(#filter4346)" opacity=".1" transform="matrix(0 .5 -.5 0 276.82523 -15.328148)"/>
  <path d="m189.84323 74c-70.59344 0-78.18921 7.250835-77.84323 77.98706v146.01294 146.01294c-.34598 70.73623 7.24979 77.98706 77.84323 77.98706h196.31354c70.59344 0 77.84323-7.24999 77.84323-77.98706v-146.01294-146.01294c0-70.737067-7.24979-77.98706-77.84323-77.98706z" fill="url(#linearGradient4358)" filter="url(#filter4380)" opacity=".3" transform="matrix(0 .5 -.5 0 276.82523 -15.328148)"/>
  <path d="m241.83043 77.478254c0-36.098811-3.69016-39.983003-39.68984-39.806081h-74.31016-74.310145c-35.99969-.176922-39.689841 3.70727-39.689841 39.806081v100.387326c0 36.09881 3.689731 39.80608 39.689841 39.80608h74.310145 74.31016c36.00011 0 39.68984-3.70727 39.68984-39.80608z" opacity=".1"/>
  <path d="m239.82523 176.74484c0 35.29673-3.62542 39.09461-38.99353 38.92162h-73.00647-73.006455c-35.36812.17299-38.993531-3.62489-38.993531-38.92162v-98.156766c0-35.296716 3.625001-38.921616 38.993531-38.921616h73.006455 73.00647c35.36853 0 38.99353 3.6249 38.99353 38.921616z" fill="#89c9d8"/>
  <path d="m15.827944 127.66916v8 41.00586c0 35.36853 3.625166 38.99414 38.921876 38.99414h146.15624c35.29673 0 39.09486-3.62602 38.92187-38.99414v-41.00586-8z" fill="#fff" opacity=".1"/>
  <path d="m54.818179 39.667201c-35.36853 0-38.992188 3.623202-38.992188 38.919923v98.158206c0 .0882.0019.16224.002.25v-96.410156c-.000047-35.29672 3.625565-38.921879 38.994095-38.921879h73.005844 73.00586c35.28016 0 38.97394 3.621035 38.99219 38.671879v-1.74805c0-35.296721-3.62561-38.919923-38.99414-38.919923h-73.00586z" fill="#fff" opacity=".3"/>
  <path d="m15.825991 174.74533v2c0 35.29673 3.624068 39.09487 38.992188 38.92188h73.007801 73.00586c35.36811.17299 38.99414-3.62515 38.99414-38.92188v-2c0 35.29673-3.62603 39.09487-38.99414 38.92188h-73.00586-73.007801c-35.36812.17299-38.992188-3.62515-38.992188-38.92188z" opacity=".2"/>
  <g enable-background="new" transform="translate(25.195866 -101.227718)">
    <path d="m102.62937 175.56354c-20.709355 0-38.347216 12.29492-45.937616 29.69598-19.278381 2.77868-34.062382 18.71468-34.062382 38.18135 0 21.424 17.908801 38.78934 39.999982 38.78934h85.002676c19.32801 0 34.99734-15.19468 34.99734-33.94134 0-17.41866-13.50934-31.69601-30.93867-33.63201-4.544-22.2416-24.79467-39.09332-49.06133-39.09332z" fill="#fff"/>
    <path d="m129.29604 234.23021-42.666685 26.66666v-53.33334z" fill="#f18537" fill-opacity=".99902"/>
    <g transform="translate(-25.195866 101.22772)">
      <path d="m47.851562 141.17773c-.00934.34477-.02539.6881-.02539 1.03516 0 21.424 17.908819 38.78906 40 38.78906h85.001948c19.32802 0 34.99805-15.19474 34.99805-33.9414 0-.3452-.01485-.68664-.02539-1.0293-.53083 18.29677-15.98004 32.9707-34.97266 32.9707h-85.001948c-21.757482 0-39.444823-16.84759-39.97461-37.82422z" opacity=".2"/>
      <path d="m111.82617 106.33594v2l41.06641 25.66601 1.59961-1z" fill="#fff" fill-opacity=".99902" opacity=".3"/>
      <path d="m152.89258 132.00195-41.06641 25.66797v2l42.66602-26.66797z" fill-opacity=".99902" opacity=".2"/>
    </g>
  </g>
</svg>

<svg xmlns="http://www.w3.org/2000/svg" xmlns:osb="http://www.openswatchbook.org/uri/2009/osb" xmlns:xlink="http://www.w3.org/1999/xlink" width="256" height="256" version="1.1">
 <defs>
  <linearGradient id="linearGradient5606" osb:paint="solid">
   <stop id="stop5608" offset="0" style="stop-color:#000000"/>
  </linearGradient>
  <linearGradient id="linearGradient4526" osb:paint="solid">
   <stop id="stop4528" offset="0" style="stop-color:#ffffff"/>
  </linearGradient>
  <linearGradient id="linearGradient3600-4" osb:paint="gradient">
   <stop id="stop3602-7" offset="0" style="stop-color:#f4f4f4"/>
   <stop id="stop3604-6" offset="1" style="stop-color:#dbdbdb"/>
  </linearGradient>
  <linearGradient id="linearGradient4210">
   <stop style="stop-color:#d78ec1" id="stop4212" offset="0"/>
   <stop id="stop4218" offset=".646" style="stop-color:#d78ec1"/>
   <stop style="stop-color:#d78ec1;stop-opacity:0" id="stop4214" offset="1"/>
  </linearGradient>
  <linearGradient id="linearGradient1108" x1="56" x2="56" y1="288" y2="83.578" gradientTransform="matrix(0.5,0,0,0.5,12,10)" gradientUnits="userSpaceOnUse" spreadMethod="reflect" xlink:href="#linearGradient4210"/>
  <radialGradient id="radialGradient3322" cx="26.617" cy="-2.065" r="23" gradientTransform="matrix(-4.8906e-8,-2.8515,3.7557,0,674.00149,398.26285)" gradientUnits="userSpaceOnUse">
   <stop id="stop2749" offset="0" style="stop-color:#d280b9"/>
   <stop style="stop-color:#b549b5" id="stop4269" offset=".529"/>
   <stop id="stop2755" offset="1" style="stop-color:#8940a8"/>
  </radialGradient>
  <linearGradient id="linearGradient4358" x1="88" x2="488" y1="88" y2="488" gradientTransform="rotate(-90,287.9946,298)" gradientUnits="userSpaceOnUse" xlink:href="#linearGradient4360"/>
  <linearGradient id="linearGradient4360">
   <stop id="stop4362" offset="0" style="stop-color:#000000;stop-opacity:0.58823532"/>
   <stop style="stop-color:#000000;stop-opacity:0" id="stop4364" offset=".88"/>
   <stop id="stop4366" offset="1" style="stop-color:#000000"/>
  </linearGradient>
  <filter style="color-interpolation-filters:sRGB" id="filter4380" width="1.106" height="1.088" x="-.05" y="-.04">
   <feGaussianBlur id="feGaussianBlur4382" stdDeviation="8.48"/>
  </filter>
  <filter style="color-interpolation-filters:sRGB" id="filter4346" width="1.026" height="1.022" x="-.01" y="-.01">
   <feGaussianBlur id="feGaussianBlur4348" stdDeviation="2.12"/>
  </filter>
 </defs>
 <path style="opacity:0.1;filter:url(#filter4346)" d="M 189.84323,74 C 119.24979,74 111.65402,81.250835 112,151.98706 V 298 444.01294 C 111.65402,514.74917 119.24979,522 189.84323,522 H 386.15677 C 456.75021,522 462.16345,514.72616 464,444.01294 V 298 151.98706 C 464,81.249993 456.75021,74 386.15677,74 Z" transform="matrix(0,0.5,-0.5,0,276.82523,-15.328148)"/>
 <path style="opacity:0.3;fill:url(#linearGradient4358);filter:url(#filter4380)" d="M 189.84323,74 C 119.24979,74 111.65402,81.250835 112,151.98706 V 298 444.01294 C 111.65402,514.74917 119.24979,522 189.84323,522 H 386.15677 C 456.75021,522 464,514.75001 464,444.01294 V 298 151.98706 C 464,81.249993 456.75021,74 386.15677,74 Z" transform="matrix(0,0.5,-0.5,0,276.82523,-15.328148)"/>
 <path style="opacity:0.1" d="m 241.83043,77.478254 c 0,-36.098811 -3.69016,-39.983003 -39.68984,-39.806081 H 127.83043 53.520285 C 17.520595,37.495251 13.830444,41.379443 13.830444,77.478254 V 177.86558 c 0,36.09881 3.689731,39.80608 39.689841,39.80608 h 74.310145 74.31016 c 36.00011,0 39.68984,-3.70727 39.68984,-39.80608 z"/>
 <path style="fill:#89c9d8" d="m 239.82523,176.74484 c 0,35.29673 -3.62542,39.09461 -38.99353,38.92162 H 127.82523 54.818775 c -35.36812,0.17299 -38.993531,-3.62489 -38.993531,-38.92162 V 78.588074 c 0,-35.296716 3.625001,-38.921616 38.993531,-38.921616 h 73.006455 73.00647 c 35.36853,0 38.99353,3.6249 38.99353,38.921616 z"/>
 <path style="opacity:0.1;fill:#ffffff" d="m 15.827944,127.66916 v 8 41.00586 c 0,35.36853 3.625166,38.99414 38.921876,38.99414 h 146.15624 c 35.29673,0 39.09486,-3.62602 38.92187,-38.99414 v -41.00586 -8 z"/>
 <path style="opacity:0.3;fill:#ffffff" d="m 54.818179,39.667201 c -35.36853,0 -38.992188,3.623202 -38.992188,38.919923 v 98.158206 c 0,0.0882 0.0019,0.16224 0.002,0.25 V 80.585174 c -4.7e-5,-35.29672 3.625565,-38.921879 38.994095,-38.921879 h 73.005844 73.00586 c 35.28016,0 38.97394,3.621035 38.99219,38.671879 v -1.74805 c 0,-35.296721 -3.62561,-38.919923 -38.99414,-38.919923 h -73.00586 z"/>
 <path style="opacity:0.2" d="m 15.825991,174.74533 v 2 c 0,35.29673 3.624068,39.09487 38.992188,38.92188 h 73.007801 73.00586 c 35.36811,0.17299 38.99414,-3.62515 38.99414,-38.92188 v -2 c 0,35.29673 -3.62603,39.09487 -38.99414,38.92188 H 127.82598 54.818179 c -35.36812,0.17299 -38.992188,-3.62515 -38.992188,-38.92188 z"/>
 <g style="enable-background:new" transform="translate(17.389788,-115.65777)">
  <g transform="translate(7.806078,14.430052)">
   <path style="fill:#ffffff" d="m 102.62937,175.56354 c -20.709355,0 -38.347216,12.29492 -45.937616,29.69598 -19.278381,2.77868 -34.062382,18.71468 -34.062382,38.18135 0,21.424 17.908801,38.78934 39.999982,38.78934 h 85.002676 c 19.32801,0 34.99734,-15.19468 34.99734,-33.94134 0,-17.41866 -13.50934,-31.69601 -30.93867,-33.63201 -4.544,-22.2416 -24.79467,-39.09332 -49.06133,-39.09332 z"/>
   <path style="fill:#f18537;fill-opacity:0.99901961" d="M 129.29604,234.23021 86.629355,260.89687 V 207.56353 Z"/>
   <path style="opacity:0.2" d="M 47.851562 141.17773 C 47.842222 141.5225 47.826172 141.86583 47.826172 142.21289 C 47.826172 163.63689 65.734991 181.00195 87.826172 181.00195 L 172.82812 181.00195 C 192.15614 181.00195 207.82617 165.80721 207.82617 147.06055 C 207.82617 146.71535 207.81132 146.37391 207.80078 146.03125 C 207.26995 164.32802 191.82074 179.00195 172.82812 179.00195 L 87.826172 179.00195 C 66.06869 179.00195 48.381349 162.15436 47.851562 141.17773 z" transform="translate(-25.195866,101.22772)"/>
   <path style="fill:#ffffff;fill-opacity:0.99901962;opacity:0.3" d="M 111.82617 106.33594 L 111.82617 108.33594 L 152.89258 134.00195 L 154.49219 133.00195 L 111.82617 106.33594 z" transform="translate(-25.195866,101.22772)"/>
   <path style="fill-opacity:0.99901962;opacity:0.2" d="M 152.89258 132.00195 L 111.82617 157.66992 L 111.82617 159.66992 L 154.49219 133.00195 L 152.89258 132.00195 z" transform="translate(-25.195866,101.22772)"/>
  </g>
 </g>
</svg>
